X:62
T:For Vic
C:Antonia Forcione - Arr. John Reischman
N:
L:1/8
Q:1/4=184
M:4/4
K:C
z8 |: g"C"e fg ed Bc | "G/B"dG ^FG BG Bd | "Am"cG ^FG dG FG | "C7/G"ed ef ed cB | 
"F"AG FG AB cA | "F#o"^FA c^d ^fd c^c | "G7"d8 | "G/F"z4 zc BA | "Esus"G^F GA GF GA | 
"E7"^GE GB ed cB | "Am"cA ^GB AE CB, | "Am/G"A,^G, A,B, A,4 |1 A,"F#o"^G, A,C ^D^F Ac | 
^dc A^F ^DC A,_B, | "G7"B,_B, =B,G3 GA | G8 :|2 A,"F#o"C ^D^F Ac3 | ^FA c^d "G7"=FA B=d | 
"C"c8 |] z4 zF Ac | "F"e3c3 d2 | "E7"zB zd cB A^G | "Am"A3B z2 c2 | zd z2 e2 f2 | 
"Bbm7 (b5)"a2 f4 z^g | "E7"ge za ^ga bg | "Am"ae zc zB zA | z4 zF ^Gc | "Fm7"^d3c3 =d2 | 
"Bb7"z_B zd cB GF | "Ebmaj7"^DF2G G_B2d | zB c6 | "Em7"GG EG _Bd cB | "A7"A^c ef gf ec | 
"Dm7"de fg ^gf de | "G7"fd Bc dG3 | z8 | 


